X: 18918
T: Independence, The
R: hornpipe
M: 4/4
K: Gmajor
(3ABc|:dgfa (3gab gd|(3efg dc (3Bcd AG|FGAB cd (3efg|
(3agf (3gfe (3ded (3Bc^c|dgfa (3gab gd|(3efg dc Bb ag|
fedB cAFG|1 (3ABA GF G2(3ABc:|2 (3ABA GF G2AB||
|:(3cdc (3BAG (3FAc (3edc|(3BcB (3GBd (3bag (3fed|(3cdc (3BAG (3FAc (3edc|
(3BcB (3GBd (3bag (3fed|(3eee (3ceg (3c'ba (3gfe|(3ded (3Bdg (3bag (3fed|
(3ced (3cBA (3fed (3cBA|(3GBd (3gdB G4:|

